assets/features/channel/southeast-asia/DBS.svg

<svg width="80" height="80" viewBox="0 0 80 80" fill="none" xmlns="http://www.w3.org/2000/svg">
<rect x="0.5" y="0.5" width="79" height="79" rx="7.5" fill="white"/>
<rect x="0.5" y="0.5" width="79" height="79" rx="7.5" stroke="#EEEEEE"/>
<path d="M26.9888 53.3374H53.4044V26.6631H26.9888V53.3374Z" fill="white"/>
<path d="M52.5425 52.4755L42.9504 44.3458C42.9504 44.3458 41.639 43.072 40.1777 43.072C38.7164 43.072 37.405 44.3458 37.405 44.3458L27.813 52.4755L27.7755 52.438L35.8313 42.7723C35.8313 42.7723 37.1053 41.4611 37.1053 39.9625C37.1053 38.5014 35.8313 37.1902 35.8313 37.1902L27.7755 27.487L27.813 27.4496L37.405 35.5793C37.405 35.5793 38.7164 36.853 40.1777 36.853C41.639 36.853 42.9504 35.5793 42.9504 35.5793L52.5425 27.4496L52.5799 27.487L44.5241 37.1902C44.5241 37.1902 43.2502 38.5014 43.2502 39.9625C43.2502 41.4611 44.5241 42.7723 44.5241 42.7723L52.5799 52.438L52.5425 52.4755ZM57.0387 40C57.0387 37.3775 57.1512 35.0173 59.0621 30.8963C59.6241 29.6974 60.8606 27.9366 59.0246 25.9136C57.5633 24.415 55.8772 24.6772 54.7531 25.3141C55.3901 24.1902 55.6524 22.4669 54.1536 20.9683C52.1303 19.1326 50.4067 20.3689 49.2077 20.9308C45.1236 22.879 42.8006 22.9914 40.1777 22.9914C37.5549 22.9914 35.2318 22.879 31.1477 20.9308C29.9487 20.3689 28.2252 19.1326 26.2018 20.9683C24.7405 22.4669 24.9654 24.1527 25.6398 25.3141C24.5157 24.6398 22.8296 24.415 21.3683 25.9136C19.5698 27.9741 20.8063 29.6974 21.3309 30.8963C23.2793 35.0173 23.3917 37.3775 23.3917 40C23.3917 42.6225 23.2793 44.9827 21.3309 49.1412C20.7688 50.3401 19.5324 52.1009 21.3683 54.1239C22.8296 55.6225 24.5157 55.3602 25.6398 54.7233C25.0028 55.8847 24.7405 57.5706 26.2018 59.0317C28.2252 60.8674 29.9487 59.6311 31.1477 59.0692C35.2318 57.121 37.5549 57.0086 40.1777 57.0086C42.8006 57.0086 45.0862 57.121 49.2077 59.0692C50.4067 59.6311 52.1303 60.8674 54.1536 59.0317C55.6149 57.5706 55.3901 55.8473 54.7157 54.7233C55.8397 55.3602 57.5258 55.6225 58.9871 54.1239C60.7856 52.0634 59.5866 50.3026 59.0246 49.1412C57.1512 44.9827 57.0387 42.6225 57.0387 40Z" fill="#FF3333"/>
</svg>

<svg xmlns="http://www.w3.org/2000/svg" width="80" height="80" fill="none" viewBox="0 0 80 80"><rect width="79" height="79" x=".5" y=".5" fill="#fff" rx="7.5"/><rect width="79" height="79" x=".5" y=".5" stroke="#eee" rx="7.5"/><path fill="#fff" d="M26.989 53.337h26.415V26.663H26.99z"/><path fill="#f33" d="m52.543 52.476-9.593-8.13s-1.311-1.274-2.772-1.274c-1.462 0-2.773 1.274-2.773 1.274l-9.592 8.13-.037-.038 8.055-9.666s1.274-1.31 1.274-2.81c0-1.46-1.274-2.772-1.274-2.772l-8.056-9.703.038-.037 9.592 8.13s1.311 1.273 2.773 1.273c1.461 0 2.772-1.274 2.772-1.274l9.592-8.13.038.038-8.056 9.703s-1.274 1.311-1.274 2.773c0 1.498 1.274 2.81 1.274 2.81l8.056 9.665zM57.039 40c0-2.623.112-4.983 2.023-9.104.562-1.199 1.799-2.96-.037-4.982-1.462-1.499-3.148-1.237-4.272-.6.637-1.124.9-2.847-.6-4.346-2.023-1.835-3.746-.6-4.945-.037-4.084 1.948-6.407 2.06-9.03 2.06s-4.946-.112-9.03-2.06c-1.2-.562-2.923-1.798-4.946.037-1.462 1.499-1.237 3.185-.562 4.346-1.124-.674-2.81-.899-4.272.6-1.798 2.06-.562 3.783-.037 4.982 1.948 4.121 2.06 6.481 2.06 9.104s-.112 4.983-2.06 9.141c-.562 1.2-1.799 2.96.037 4.983 1.462 1.499 3.148 1.236 4.272.6-.637 1.16-.9 2.847.562 4.308 2.023 1.835 3.747.6 4.946.037 4.084-1.948 6.407-2.06 9.03-2.06s4.908.112 9.03 2.06c1.199.562 2.922 1.798 4.946-.037 1.46-1.461 1.236-3.185.562-4.309 1.124.637 2.81.9 4.271-.6 1.799-2.06.6-3.82.038-4.982-1.874-4.158-1.986-6.518-1.986-9.141"/></svg>
